src/32/apps/preferences-desktop-sound.svg

<?xml version="1.0" encoding="UTF-8" standalone="no"?>
<svg
   xmlns:dc="http://purl.org/dc/elements/1.1/"
   xmlns:cc="http://creativecommons.org/ns#"
   xmlns:rdf="http://www.w3.org/1999/02/22-rdf-syntax-ns#"
   xmlns:svg="http://www.w3.org/2000/svg"
   xmlns="http://www.w3.org/2000/svg"
   xmlns:xlink="http://www.w3.org/1999/xlink"
   xmlns:sodipodi="http://sodipodi.sourceforge.net/DTD/sodipodi-0.dtd"
   xmlns:inkscape="http://www.inkscape.org/namespaces/inkscape"
   version="1.0"
   width="32"
   height="32"
   id="svg6826"
   inkscape:version="0.92.4 (5da689c313, 2019-01-14)"
   sodipodi:docname="preferences-desktop-sound.svg">
  <sodipodi:namedview
     pagecolor="#ffffff"
     bordercolor="#666666"
     borderopacity="1"
     objecttolerance="10"
     gridtolerance="10"
     guidetolerance="10"
     inkscape:pageopacity="0"
     inkscape:pageshadow="2"
     inkscape:window-width="1366"
     inkscape:window-height="708"
     id="namedview1337"
     showgrid="false"
     inkscape:zoom="10.429825"
     inkscape:cx="15.188104"
     inkscape:cy="13.389964"
     inkscape:window-x="0"
     inkscape:window-y="30"
     inkscape:window-maximized="1"
     inkscape:current-layer="svg6826" />
  <metadata
     id="metadata90">
    <rdf:RDF>
      <cc:Work
         rdf:about="">
        <dc:format>image/svg+xml</dc:format>
        <dc:type
           rdf:resource="http://purl.org/dc/dcmitype/StillImage" />
      </cc:Work>
    </rdf:RDF>
  </metadata>
  <defs
     id="defs6828">
    <linearGradient
       id="linearGradient17123">
      <stop
         id="stop17125"
         style="stop-color:#000000;stop-opacity:1"
         offset="0" />
      <stop
         id="stop17127"
         style="stop-color:#000000;stop-opacity:0"
         offset="1" />
    </linearGradient>
    <radialGradient
       cx="11.402097"
       cy="36.863068"
       r="10.69499"
       fx="11.402097"
       fy="36.863068"
       id="radialGradient6706"
       xlink:href="#linearGradient17123"
       gradientUnits="userSpaceOnUse"
       gradientTransform="matrix(1,0,0,0.330579,0,24.67693)" />
    <linearGradient
       id="linearGradient3858">
      <stop
         id="stop3860"
         style="stop-color:#a0a0a0;stop-opacity:1"
         offset="0" />
      <stop
         id="stop3862"
         style="stop-color:#4a4a4a;stop-opacity:1"
         offset="1" />
    </linearGradient>
    <linearGradient
       x1="84.425995"
       y1="8.2933674"
       x2="102.42599"
       y2="8.2933674"
       id="linearGradient6814"
       xlink:href="#linearGradient3858"
       gradientUnits="userSpaceOnUse"
       gradientTransform="matrix(0.1860508,0.7118491,-0.6943512,0.1907393,-1.9555157,-49.898337)" />
    <linearGradient
       id="linearGradient5262">
      <stop
         id="stop5264"
         style="stop-color:#babdb6;stop-opacity:1"
         offset="0" />
      <stop
         id="stop5266"
         style="stop-color:#eeeeec;stop-opacity:1"
         offset="0.43738842" />
      <stop
         id="stop5268"
         style="stop-color:#555753;stop-opacity:1"
         offset="1" />
    </linearGradient>
    <linearGradient
       x1="102.35701"
       y1="-41.092239"
       x2="82.681335"
       y2="-41.092239"
       id="linearGradient6812"
       xlink:href="#linearGradient5262"
       gradientUnits="userSpaceOnUse"
       gradientTransform="matrix(0.08518048,0.3259091,-0.3001583,0.08245393,-13.051556,-11.32274)"
       spreadMethod="reflect" />
    <linearGradient
       id="linearGradient6531">
      <stop
         id="stop6533"
         style="stop-color:#ffffff;stop-opacity:1"
         offset="0" />
      <stop
         id="stop6535"
         style="stop-color:#ffffff;stop-opacity:0"
         offset="1" />
    </linearGradient>
    <linearGradient
       x1="9.883214"
       y1="14.05074"
       x2="5.1012387"
       y2="30.00112"
       id="linearGradient6760"
       xlink:href="#linearGradient6531"
       gradientUnits="userSpaceOnUse" />
    <linearGradient
       id="linearGradient6546-397-668-696-989">
      <stop
         id="stop4870"
         style="stop-color:#383937;stop-opacity:1"
         offset="0" />
      <stop
         id="stop4872"
         style="stop-color:#595b57;stop-opacity:1"
         offset="1" />
    </linearGradient>
    <linearGradient
       x1="80.693359"
       y1="31.561478"
       x2="77.125"
       y2="14"
       id="linearGradient6808"
       xlink:href="#linearGradient6546-397-668-696-989"
       gradientUnits="userSpaceOnUse"
       gradientTransform="matrix(0.6943512,-0.1907393,0.1860508,0.7118491,-48.541161,17.393799)" />
    <linearGradient
       id="linearGradient5292">
      <stop
         id="stop5294"
         style="stop-color:#4b4b4b;stop-opacity:1"
         offset="0" />
      <stop
         id="stop5296"
         style="stop-color:#babdb6;stop-opacity:1"
         offset="1" />
    </linearGradient>
    <linearGradient
       x1="7.75"
       y1="33.046577"
       x2="4.6431866"
       y2="12.063652"
       id="linearGradient6805"
       xlink:href="#linearGradient5292"
       gradientUnits="userSpaceOnUse"
       gradientTransform="matrix(0.6328722,-0.1738509,0.1634992,0.6255644,2.4346664,5.4252077)" />
    <linearGradient
       id="linearGradient6633">
      <stop
         id="stop6635"
         style="stop-color:#eeeeec;stop-opacity:1"
         offset="0" />
      <stop
         id="stop6637"
         style="stop-color:#61635f;stop-opacity:1"
         offset="1" />
    </linearGradient>
    <radialGradient
       cx="9.3203983"
       cy="18.817093"
       r="12.5"
       fx="9.3203983"
       fy="18.817093"
       id="radialGradient6803"
       xlink:href="#linearGradient6633"
       gradientUnits="userSpaceOnUse"
       gradientTransform="matrix(0.5923905,0.2356461,-0.425153,1.0159276,14.078042,-6.4518521)" />
    <linearGradient
       id="linearGradient6651">
      <stop
         id="stop6653"
         style="stop-color:#ffffff;stop-opacity:1"
         offset="0" />
      <stop
         id="stop6655"
         style="stop-color:#ffffff;stop-opacity:0"
         offset="1" />
    </linearGradient>
    <radialGradient
       cx="23.986883"
       cy="27.053167"
       r="7.75"
       fx="23.986883"
       fy="27.053167"
       id="radialGradient6768"
       xlink:href="#linearGradient6651"
       gradientUnits="userSpaceOnUse"
       gradientTransform="matrix(-0.2432942,0,0,-1.2543129,25.221399,61.870636)" />
    <linearGradient
       id="linearGradient6379">
      <stop
         id="stop6381"
         style="stop-color:#ffffff;stop-opacity:0"
         offset="0" />
      <stop
         id="stop21606"
         style="stop-color:#ffffff;stop-opacity:1"
         offset="0.5" />
      <stop
         id="stop6383"
         style="stop-color:#ffffff;stop-opacity:0"
         offset="1" />
    </linearGradient>
    <linearGradient
       x1="20.226221"
       y1="20.33363"
       x2="11.4375"
       y2="21.75"
       id="linearGradient6799"
       xlink:href="#linearGradient6379"
       gradientUnits="userSpaceOnUse"
       gradientTransform="matrix(0.4629008,-0.1271595,0.1860508,0.7118491,0.8939732,1.5250217)" />
    <linearGradient
       id="linearGradient6573">
      <stop
         id="stop6575"
         style="stop-color:#ffffff;stop-opacity:1"
         offset="0" />
      <stop
         id="stop6577"
         style="stop-color:#ffffff;stop-opacity:0"
         offset="1" />
    </linearGradient>
    <linearGradient
       x1="19.240318"
       y1="4.8111696"
       x2="11.323519"
       y2="35.457581"
       id="linearGradient6772"
       xlink:href="#linearGradient6573"
       gradientUnits="userSpaceOnUse" />
    <linearGradient
       id="linearGradient6643">
      <stop
         id="stop6645"
         style="stop-color:#4c4c4c;stop-opacity:1"
         offset="0" />
      <stop
         id="stop6647"
         style="stop-color:#d3d7cf;stop-opacity:1"
         offset="1" />
    </linearGradient>
    <linearGradient
       x1="33.430557"
       y1="45.052155"
       x2="33.430557"
       y2="0.31037101"
       id="linearGradient6776"
       xlink:href="#linearGradient6643"
       gradientUnits="userSpaceOnUse" />
    <linearGradient
       id="linearGradient4718">
      <stop
         id="stop4720"
         style="stop-color:#767973;stop-opacity:1"
         offset="0" />
      <stop
         id="stop4722"
         style="stop-color:#202120;stop-opacity:1"
         offset="1" />
    </linearGradient>
    <radialGradient
       cx="23.164974"
       cy="30.23279"
       r="8.1890125"
       fx="23.164974"
       fy="30.23279"
       id="radialGradient6774"
       xlink:href="#linearGradient4718"
       gradientUnits="userSpaceOnUse"
       gradientTransform="matrix(1.7076407,0.08762866,-0.147112,3.1218237,-12.447662,-64.675546)" />
    <linearGradient
       id="linearGradient6589-510-471-936">
      <stop
         id="stop5849"
         style="stop-color:#878a85;stop-opacity:1"
         offset="0" />
      <stop
         id="stop5851"
         style="stop-color:#3e3f3d;stop-opacity:1"
         offset="1" />
    </linearGradient>
    <radialGradient
       cx="20.8839"
       cy="20.434256"
       r="3.9999843"
       fx="20.8839"
       fy="20.434256"
       id="radialGradient6794"
       xlink:href="#linearGradient6589-510-471-936"
       gradientUnits="userSpaceOnUse"
       gradientTransform="matrix(0.9091792,-0.2497529,0.290331,1.1108357,-7.9537497,-2.7466832)" />
    <linearGradient
       id="linearGradient3844">
      <stop
         id="stop3846"
         style="stop-color:#e8e8e8;stop-opacity:1"
         offset="0" />
      <stop
         id="stop3848"
         style="stop-color:#a5a6a8;stop-opacity:1"
         offset="1" />
    </linearGradient>
    <radialGradient
       cx="30.685316"
       cy="42.261425"
       r="8.22791"
       fx="30.685316"
       fy="42.261425"
       id="radialGradient6791"
       xlink:href="#linearGradient3844"
       gradientUnits="userSpaceOnUse"
       gradientTransform="matrix(2.7898887,-0.6771223,-0.4707152,-1.8010038,-51.980393,102.83108)" />
    <linearGradient
       id="linearGradient6628">
      <stop
         id="stop6630"
         style="stop-color:#000000;stop-opacity:1"
         offset="0" />
      <stop
         id="stop6632"
         style="stop-color:#000000;stop-opacity:0"
         offset="1" />
    </linearGradient>
    <linearGradient
       x1="23.238182"
       y1="12.158657"
       x2="29.892563"
       y2="26.354361"
       id="linearGradient6782"
       xlink:href="#linearGradient6628"
       gradientUnits="userSpaceOnUse" />
    <linearGradient
       id="linearGradient6700">
      <stop
         id="stop6702"
         style="stop-color:#ffffff;stop-opacity:1"
         offset="0" />
      <stop
         id="stop6704"
         style="stop-color:#ffffff;stop-opacity:0"
         offset="1" />
    </linearGradient>
    <linearGradient
       x1="16.790216"
       y1="21.270329"
       x2="29.694229"
       y2="46.259285"
       id="linearGradient6824"
       xlink:href="#linearGradient6700"
       gradientUnits="userSpaceOnUse" />
  </defs>
  <g
     id="g938"
     transform="translate(2,2.000005)">
    <path
       sodipodi:nodetypes="ccsscccsscccsscccsscc"
       id="rect4197-87"
       d="M 14,0.5 C 11.42951,0.5007 8.91268,1.19477 6.7454,2.57692 H 4.00529 c -0.769,0 -1.42836,0.65936 -1.42836,1.42836 v 2.7639 C 1.19911,8.92963 0.50535,11.4376 0.5,14 c 7e-4,2.57049 0.69477,5.08731 2.07693,7.25459 v 2.74011 c 0,0.769 0.65936,1.42836 1.42836,1.42836 h 2.76389 c 2.16046,1.37782 4.66843,2.07158 7.23082,2.07693 2.5705,-7e-4 5.08732,-0.69477 7.2546,-2.07693 h 2.74011 c 0.769,0 1.42837,-0.65936 1.42837,-1.42836 V 21.23081 C 26.80089,19.07035 27.49466,16.56239 27.5,14 27.4993,11.4295 26.80523,8.91268 25.42308,6.7454 V 4.00528 c 0,-0.769 -0.65937,-1.42836 -1.42837,-1.42836 H 21.23082 C 19.07036,1.19911 16.5624,0.50534 14,0.5 Z"
       style="opacity:1;fill:#61697f;fill-opacity:1;stroke:#252831;stroke-width:0.99999988;stroke-linecap:butt;stroke-linejoin:miter;stroke-miterlimit:4;stroke-dasharray:none;stroke-dashoffset:0;stroke-opacity:0.78431373"
       inkscape:connector-curvature="0" />
    <circle
       r="11.5"
       cy="14"
       cx="14"
       id="path4195-2"
       style="opacity:1;fill:#ffff8f;fill-opacity:1;stroke:#252831;stroke-width:0.99999982;stroke-linecap:butt;stroke-linejoin:miter;stroke-miterlimit:4;stroke-dasharray:none;stroke-dashoffset:0;stroke-opacity:0.78431373" />
    <rect
       ry="1.5"
       rx="1.5"
       y="4"
       x="4"
       height="1"
       width="1"
       id="rect4235-5"
       style="opacity:1;fill:#b2b7bf;fill-opacity:1;stroke:none;stroke-width:1;stroke-linecap:butt;stroke-linejoin:miter;stroke-miterlimit:4;stroke-dasharray:none;stroke-dashoffset:0;stroke-opacity:0.78431373" />
    <rect
       ry="1.5"
       rx="1.5"
       y="4"
       x="23"
       height="1"
       width="1"
       id="rect4235-9-1"
       style="opacity:1;fill:#b2b7bf;fill-opacity:1;stroke:none;stroke-width:1;stroke-linecap:butt;stroke-linejoin:miter;stroke-miterlimit:4;stroke-dasharray:none;stroke-dashoffset:0;stroke-opacity:0.78431373" />
    <rect
       ry="1.5"
       rx="1.5"
       y="23"
       x="23"
       height="1"
       width="1"
       id="rect4235-7-8"
       style="opacity:1;fill:#b2b7bf;fill-opacity:1;stroke:none;stroke-width:1;stroke-linecap:butt;stroke-linejoin:miter;stroke-miterlimit:4;stroke-dasharray:none;stroke-dashoffset:0;stroke-opacity:0.78431373" />
    <rect
       ry="1.5"
       rx="1.5"
       y="23"
       x="4"
       height="1"
       width="1"
       id="rect4235-3-1"
       style="opacity:1;fill:#b2b7bf;fill-opacity:1;stroke:none;stroke-width:1;stroke-linecap:butt;stroke-linejoin:miter;stroke-miterlimit:4;stroke-dasharray:none;stroke-dashoffset:0;stroke-opacity:0.78431373" />
    <circle
       r="4.0000029"
       cy="14"
       cx="14"
       id="path4264-4"
       style="opacity:1;fill:#4c5263;fill-opacity:1;stroke:none;stroke-width:0.99999994;stroke-linecap:butt;stroke-linejoin:miter;stroke-miterlimit:4;stroke-dasharray:none;stroke-dashoffset:0;stroke-opacity:0.78431373" />
  </g>
</svg>

<svg xmlns="http://www.w3.org/2000/svg" version="1.0" width="32" height="32"><defs><linearGradient id="a"><stop offset="0"/><stop offset="1" stop-opacity="0"/></linearGradient><linearGradient id="b"><stop offset="0" stop-color="#a0a0a0"/><stop offset="1" stop-color="#4a4a4a"/></linearGradient><linearGradient id="c"><stop offset="0" stop-color="#babdb6"/><stop offset=".437" stop-color="#eeeeec"/><stop offset="1" stop-color="#555753"/></linearGradient><linearGradient id="d"><stop offset="0" stop-color="#fff"/><stop offset="1" stop-color="#fff" stop-opacity="0"/></linearGradient><linearGradient id="e"><stop offset="0" stop-color="#383937"/><stop offset="1" stop-color="#595b57"/></linearGradient><linearGradient id="f"><stop offset="0" stop-color="#4b4b4b"/><stop offset="1" stop-color="#babdb6"/></linearGradient><linearGradient id="g"><stop offset="0" stop-color="#eeeeec"/><stop offset="1" stop-color="#61635f"/></linearGradient><linearGradient id="h"><stop offset="0" stop-color="#fff"/><stop offset="1" stop-color="#fff" stop-opacity="0"/></linearGradient><linearGradient id="i"><stop offset="0" stop-color="#fff" stop-opacity="0"/><stop offset=".5" stop-color="#fff"/><stop offset="1" stop-color="#fff" stop-opacity="0"/></linearGradient><linearGradient id="j"><stop offset="0" stop-color="#fff"/><stop offset="1" stop-color="#fff" stop-opacity="0"/></linearGradient><linearGradient id="k"><stop offset="0" stop-color="#4c4c4c"/><stop offset="1" stop-color="#d3d7cf"/></linearGradient><linearGradient id="l"><stop offset="0" stop-color="#767973"/><stop offset="1" stop-color="#202120"/></linearGradient><linearGradient id="m"><stop offset="0" stop-color="#878a85"/><stop offset="1" stop-color="#3e3f3d"/></linearGradient><linearGradient id="n"><stop offset="0" stop-color="#e8e8e8"/><stop offset="1" stop-color="#a5a6a8"/></linearGradient><linearGradient id="o"><stop offset="0"/><stop offset="1" stop-opacity="0"/></linearGradient><linearGradient id="p"><stop offset="0" stop-color="#fff"/><stop offset="1" stop-color="#fff" stop-opacity="0"/></linearGradient></defs><g transform="translate(2 2)"><path d="M14 .5c-2.57 0-5.087.695-7.255 2.077h-2.74c-.769 0-1.428.66-1.428 1.428V6.77C1.199 8.93.505 11.438.5 14c0 2.57.695 5.087 2.077 7.255v2.74c0 .769.66 1.428 1.428 1.428H6.77C8.93 26.801 11.438 27.495 14 27.5c2.57 0 5.087-.695 7.255-2.077h2.74c.769 0 1.428-.66 1.428-1.428V21.23c1.378-2.16 2.072-4.669 2.077-7.231 0-2.57-.695-5.087-2.077-7.255v-2.74c0-.769-.66-1.428-1.428-1.428H21.23C19.07 1.199 16.562.505 14 .5z" fill="#61697f" stroke="#252831" stroke-opacity=".784"/><circle r="11.5" cy="14" cx="14" fill="#ffff8f" stroke="#252831" stroke-opacity=".784"/><rect ry="1.5" rx="1.5" y="4" x="4" height="1" width="1" fill="#b2b7bf"/><rect ry="1.5" rx="1.5" y="4" x="23" height="1" width="1" fill="#b2b7bf"/><rect ry="1.5" rx="1.5" y="23" x="23" height="1" width="1" fill="#b2b7bf"/><rect ry="1.5" rx="1.5" y="23" x="4" height="1" width="1" fill="#b2b7bf"/><circle r="4" cy="14" cx="14" fill="#4c5263"/></g></svg>
